X:6999540
T:Selmer Ramsey's Old Time Schottische No. 3
S:$2Selmer Ramsey's Old Time Music Volume 1.$0 Mark Custom Records, MC6197, 1977.
H:Selmer Ramsey (1914-1978) was a Minnesota fiddler. He played for dances around 
H:the state for many years, and composed several tunes. This is from the first 
H:of his three records.
N:From NH Country Dance (URL below), along with many New England, Canadian & Swedish
N:tunes, and resources for abc notation and New England traditional music and dance.
%
N: Note #1: To preserve formatting (font, spacing, etc.), use the
N: file header at the URL below; just follow accompanying instructions.
%
N: Note #2: This abc code is optimized for use with abcm2ps, which is used by
N: EasyABC and other abc apps. To abc2svg for display or printing look to see if there
N: is a file optimized for abc2svg. If not you may need to adjust the spacing in places.
%
Z:abc-transcription Peter Yarensky. I rely heavily on careful listening to the
Z:named sources aided by software to hear details. While not perfect, known
Z:substantial differences from other written sources receive careful attention.
Z:abc-copyright Peter Yarensky. You may reproduce this tune freely but
Z:please include the entire abc file including all the notes.
%%writefields HQSD
U:s = !slide!
U:t = !trill!
F:Tunes Home Page - https://fiddle-tunes.nhcountrydance.com/
F:abc Header & its Usage - https://fiddle-tunes.nhcountrydance.com/header-page/
M:4/4
L:1/8
R:Scandinavian Schottische
G:Scandinavian Tunes ~ Schottis
N: Tune Tags ~ Schottische, Scandinavian
K:G
|: (3 def |\
"G" gd BG DG Bd  | "C" ed cA E2 e2 | "D7" d2 f>e d/e/d c/B/A | "G" G>e d>[ce] [B2e2] (3 def |
"G" g>G BG DG Bd | "C" ed cA E2 e2 | "D7" d2 f>e d/e/d c/B/A | "G" G2 g2 g2:|
 GC |\
"G" G,G, B,G, G,G, B,D | "C" CC EG (Gc) c2 | "D7" DD [FA][DA] DD Fd | "G" dd ed [GB]2 [GB] G/C/ |
"G" G,G, B,G, G,G, B,D | "C" CC EG (Gc) c2 | "D7" DF Ad fe dF | "G" G2 G2 G2 |]
%%vskip 25

